X:1
T:Title
%%score { ( 1 3 5 ) | ( 2 4 ) }
L:1/8
M:4/4
K:Bb
V:1 treble nm="Grand Piano"
V:3 treble 
V:5 treble 
V:2 bass 
V:4 bass 
V:1
 z4 z2[Q:1/4=110] F2 | B2 F2 D2 B,2 | F3 G F2 [Fd]2 | z4 z2 c2 | [DB]6 d2 | z4 z2 .A2 | %6
 A>G AB [CFc]2 [CF]2 | z4 [FA]2 z2 | [A,F]6 [A,CF]2 | [B,DG]3 G G2 G2 | B2 A4 A2 | z2 z B B2 B2 | %12
 d2 c4 F2 | d2 cd e2 d2 | [Ec]2 z2 z4 | [B,FB]2 .[B,FA]2 [Fc]2 F2 | d6 F2 | d2 cd e2 d2 | %18
[M:9/8] .[Gc]6 z3 |[M:4/4] B3 A G2 A2 |[M:3/4] [DB]6 |] %21
V:2
 z4 z2 F,2 | B,2 F,2 D,2 B,,2 | F,3 G, F,2 [B,,B,]2 | [D,B,]3 [E,B,] [F,B,F]2 .[F,A,F]2 | %4
 [B,,B,]6[K:treble] [B,F]2 | [A,CF]2 [A,C]2 [G,DF]2[K:bass] [C,C]2 | [CF]4 z4 | %7
 B,,2 z[K:treble] B[K:bass] C,2 z B, | F,6 F,2 | F,2 z [B,D] [F,B,D]2 [F,B,D]2 | %10
 [F,CE]2 [F,CE]4 [F,CE]2 | [DF]3[K:treble] [DF] [F,DF]2 [F,DF]2 | B,2 z2 z4 | %13
 [B,F]2 [A,CF]2 [G,B,E]2 [F,B,F]2 | z2 D2 F,2 E,2 | D,2 z[K:treble] B[K:bass] [C,A,]2 [F,A,]2 | %16
 [B,F]6 F,2 | [B,F]2 [A,CF]2[K:bass] [G,B,E]2 [F,B,F]2 |[M:9/8] .B,3 z [D,A,]2- [D,A,] [E,E]2 | %19
[M:4/4] [F,DF]3 [F,CE] [F,CE]2 [F,CE]2 |[M:3/4] [B,,B,]6 |] %21
V:3
 x8 | x8 | x8 | [FB]3 [Gc] d2 z E | x8 | c2 F2 B2 =E-[EG] | x8 | [DFG]2 .[DFA]2 C2- [C=EG]2 | x8 | %9
 x8 | x8 | B4 z4 | x8 | x8 | G2- [GB]2 [CFA]2 [A,CF]2 | x8 | x8 | x8 | %18
[M:9/8] z2 A, G, [^Fd]2- [Fd] [Gc]2 |[M:4/4] x8 |[M:3/4] x6 |] %21
V:4
 x8 | x8 | x8 | x8 | x6[K:treble] x2 | x6[K:bass] x2 | F,3 G, A,2 A,,2 | %7
 z2 G,,2[K:treble][K:bass] z2 C,2 | x8 | z2 F,2 z4 | x8 | F,2 z2[K:treble] z4 | %12
 [F,F]2- [F,A,F]4 F,2 | x8 | E,4 z4 | z2 D,2[K:treble][K:bass] z4 | x8 | x4[K:bass] x4 | %18
[M:9/8] .E,6 z3 |[M:4/4] x8 |[M:3/4] x6 |] %21
V:5
 x8 | x8 | x8 | x8 | x8 | x8 | x8 | x8 | x8 | x8 | x8 | z2 F,2 z4 | x8 | x8 | x8 | x8 | x8 | x8 | %18
[M:9/8] x9 |[M:4/4] x8 |[M:3/4] x6 |] %21

